;FLAVOR:Marlin
;TIME:3894
;Filament used: 2.55191m
;Layer height: 0.16
;MINX:78.995
;MINY:100.515
;MINZ:0.12
;MAXX:158.813
;MAXY:134.486
;MAXZ:35
;Generated with Cura_SteamEngine 4.12.1
M140 S50
M105
M190 S50
M104 S200
M105
M109 S200
M82 ;absolute extrusion mode
; Ender 3 Custom Start G-code
G92 E0 ; Reset Extruder
G28 ; Home all axes
G1 Z2.0 F3000 ; Move Z Axis up little to prevent scratching of Heat Bed
G1 X0.1 Y20 Z0.3 F5000.0 ; Move to start position
G1 X0.1 Y200.0 Z0.3 F1500.0 E15 ; Draw the first line
G1 X0.4 Y200.0 Z0.3 F5000.0 ; Move to side a little
G1 X0.4 Y20 Z0.3 F1500.0 E30 ; Draw the second line
G92 E0 ; Reset Extruder
G1 Z2.0 F3000 ; Move Z Axis up little to prevent scratching of Heat Bed
G1 X5 Y20 Z0.3 F5000.0 ; Move over to prevent blob squish
G92 E0
G92 E0
G1 F1500 E-4
;LAYER_COUNT:219
;LAYER:0
M107
G0 F6000 X83.354 Y103.128 Z0.12
;TYPE:SKIRT
G1 F1500 E0
G1 F1200 X84.114 Y102.58 E0.0187
G1 X85.201 Y101.95 E0.04377
G1 X85.389 Y101.855 E0.04797
G1 X85.971 Y101.582 E0.0608
G1 X86.13 Y101.513 E0.06426
G1 X87.005 Y101.177 E0.08297
G1 X87.906 Y100.916 E0.10169
G1 X88.503 Y100.789 E0.11387
G1 X88.997 Y100.7 E0.12388
G1 X89.185 Y100.67 E0.12768
G1 X90.116 Y100.562 E0.14639
G1 X90.721 Y100.535 E0.15847
G1 X91.921 Y100.515 E0.18242
G1 X146.302 Y100.515 E1.26765
G1 X147.158 Y100.526 E1.28474
G1 X148.177 Y100.588 E1.30511
G1 X148.4 Y100.612 E1.30959
G1 X149.327 Y100.752 E1.3283
G1 X150.495 Y101.047 E1.35234
G1 X150.694 Y101.109 E1.3565
G1 X151.577 Y101.426 E1.37522
G1 X152.429 Y101.817 E1.39393
G1 X153.136 Y102.212 E1.41009
G1 X153.363 Y102.35 E1.41539
G1 X154.143 Y102.871 E1.43411
G1 X154.876 Y103.456 E1.45282
G1 X155.556 Y104.102 E1.47154
G1 X156.179 Y104.803 E1.49026
G1 X156.739 Y105.555 E1.50897
G1 X157.234 Y106.352 E1.52769
G1 X157.557 Y106.971 E1.54162
G1 X157.693 Y107.253 E1.54787
G1 X158.064 Y108.114 E1.56658
G1 X158.36 Y109.004 E1.5853
G1 X158.58 Y109.916 E1.60402
G1 X158.721 Y110.843 E1.62273
G1 X158.783 Y111.807 E1.64201
G1 X158.8 Y112.642 E1.65868
G1 X158.802 Y112.841 E1.66265
G1 X158.813 Y117.687 E1.75935
G1 X158.8 Y122.281 E1.85103
G1 X158.785 Y123.175 E1.86888
G1 X158.729 Y124.111 E1.88759
G1 X158.592 Y125.039 E1.90631
G1 X158.378 Y125.952 E1.92502
G1 X158.086 Y126.843 E1.94373
G1 X157.588 Y127.973 E1.96838
G1 X157.454 Y128.236 E1.97427
G1 X156.993 Y129.052 E1.99297
G1 X156.464 Y129.827 E2.0117
G1 X155.871 Y130.554 E2.03042
G1 X155.219 Y131.227 E2.04912
G1 X154.511 Y131.843 E2.06785
G1 X153.546 Y132.53 E2.09149
G1 X153.36 Y132.648 E2.09588
G1 X152.547 Y133.117 E2.11461
G1 X151.375 Y133.642 E2.14024
G1 X151.154 Y133.726 E2.14496
G1 X150.264 Y134.022 E2.16368
G1 X149.352 Y134.24 E2.18239
G1 X148.647 Y134.354 E2.19664
G1 X148.39 Y134.387 E2.20181
G1 X147.142 Y134.476 E2.22678
G1 X146.342 Y134.486 E2.24275
G1 X138.735 Y134.485 E2.39455
G1 X137.982 Y134.479 E2.40958
G1 X136.513 Y134.442 E2.4389
G1 X136.266 Y134.433 E2.44384
G1 X135.174 Y134.38 E2.46565
G1 X134.903 Y134.364 E2.47107
G1 X133.607 Y134.269 E2.497
G1 X133.336 Y134.245 E2.50243
G1 X132.267 Y134.14 E2.52387
G1 X131.988 Y134.109 E2.52947
G1 X130.682 Y133.947 E2.55573
G1 X130.422 Y133.912 E2.56097
G1 X129.37 Y133.756 E2.58219
G1 X129.118 Y133.716 E2.58728
G1 X127.921 Y133.51 E2.61152
G1 X127.638 Y133.457 E2.61727
G1 X126.428 Y133.216 E2.64189
G1 X126.183 Y133.164 E2.64689
G1 X125.111 Y132.925 E2.66881
G1 X124.843 Y132.862 E2.6743
G1 X123.588 Y132.549 E2.70011
G1 X123.327 Y132.48 E2.7055
G1 X122.333 Y132.206 E2.72607
G1 X122.07 Y132.131 E2.73153
G1 X120.642 Y131.699 E2.76131
G1 X118.238 Y131.009 E2.81122
G1 X115.756 Y130.371 E2.86236
G1 X113.285 Y129.809 E2.91293
G1 X110.861 Y129.332 E2.96223
G1 X108.362 Y128.913 E3.0128
G1 X105.875 Y128.566 E3.06291
G1 X103.355 Y128.288 E3.1135
G1 X100.856 Y128.083 E3.16354
G1 X98.374 Y127.951 E3.21314
G1 X95.816 Y127.887 E3.2642
G1 X93.281 Y127.895 E3.31479
G1 X91.219 Y127.954 E3.35596
G1 X91.052 Y127.961 E3.3593
G1 X90.316 Y127.967 E3.37398
G1 X89.999 Y127.959 E3.38031
G1 X89.064 Y127.896 E3.39901
G1 X88.137 Y127.753 E3.41773
G1 X87.226 Y127.531 E3.43644
G1 X86.336 Y127.233 E3.45517
G1 X85.438 Y126.842 E3.47472
G1 X85.242 Y126.746 E3.47907
G1 X84.419 Y126.298 E3.49777
G1 X83.636 Y125.781 E3.5165
G1 X82.9 Y125.2 E3.53521
G1 X82.216 Y124.558 E3.55393
G1 X81.59 Y123.86 E3.57264
G1 X81.025 Y123.111 E3.59136
G1 X80.526 Y122.317 E3.61008
G1 X79.93 Y121.103 E3.63707
G1 X79.877 Y120.976 E3.63981
G1 X79.553 Y120.096 E3.65853
G1 X79.305 Y119.192 E3.67723
G1 X79.135 Y118.269 E3.69596
G1 X79.03 Y116.97 E3.72197
G1 X79.011 Y116.06 E3.74014
G1 X78.995 Y112.808 E3.80503
G1 X78.996 Y112.456 E3.81206
G1 X79.01 Y111.764 E3.82587
G1 X79.071 Y110.828 E3.84459
G1 X79.212 Y109.901 E3.8633
G1 X79.431 Y108.989 E3.88202
G1 X79.727 Y108.099 E3.90074
G1 X80.098 Y107.238 E3.91945
G1 X80.7 Y106.15 E3.94426
G1 X80.855 Y105.904 E3.95006
G1 X81.389 Y105.133 E3.96878
G1 X81.986 Y104.409 E3.9875
G1 X82.642 Y103.74 E4.0062
G1 X83.354 Y103.128 E4.02494
G0 F6000 X83.654 Y103.401
G1 F1200 X84.405 Y102.868 E4.04332
G1 X85.381 Y102.307 E4.06578
G1 X85.569 Y102.212 E4.06999
G1 X86.13 Y101.949 E4.08235
G1 X86.289 Y101.88 E4.08581
G1 X87.149 Y101.551 E4.10418
G1 X88.034 Y101.297 E4.12256
G1 X88.575 Y101.182 E4.1336
G1 X89.06 Y101.095 E4.14343
G1 X89.248 Y101.065 E4.14723
G1 X90.162 Y100.96 E4.16559
G1 X90.728 Y100.935 E4.17689
G1 X91.921 Y100.915 E4.20071
G1 X146.302 Y100.915 E5.28594
G1 X147.152 Y100.926 E5.3029
G1 X148.134 Y100.986 E5.32253
G1 X148.357 Y101.01 E5.32701
G1 X149.267 Y101.148 E5.34538
G1 X150.376 Y101.429 E5.36821
G1 X150.575 Y101.491 E5.37237
G1 X151.441 Y101.803 E5.39074
G1 X152.277 Y102.188 E5.40911
G1 X152.928 Y102.553 E5.424
G1 X153.155 Y102.691 E5.4293
G1 X153.921 Y103.203 E5.44769
G1 X154.638 Y103.78 E5.46605
G1 X155.304 Y104.416 E5.48443
G1 X155.911 Y105.108 E5.5028
G1 X156.456 Y105.85 E5.52117
G1 X156.935 Y106.637 E5.53956
G1 X157.197 Y107.144 E5.55095
G1 X157.333 Y107.426 E5.5572
G1 X157.696 Y108.272 E5.57557
G1 X157.985 Y109.146 E5.59394
G1 X158.197 Y110.042 E5.61231
G1 X158.33 Y110.953 E5.63068
G1 X158.383 Y111.815 E5.64792
G1 X158.4 Y112.65 E5.66459
G1 X158.402 Y112.842 E5.66842
G1 X158.413 Y117.686 E5.76509
G1 X158.4 Y122.28 E5.85676
G1 X158.385 Y123.168 E5.87449
G1 X158.329 Y124.087 E5.89286
G1 X158.193 Y124.997 E5.91122
G1 X157.979 Y125.893 E5.92961
G1 X157.687 Y126.766 E5.94798
G1 X157.232 Y127.791 E5.97036
G1 X157.098 Y128.054 E5.97625
G1 X156.645 Y128.856 E5.99463
G1 X156.124 Y129.615 E6.013
G1 X155.539 Y130.326 E6.03137
G1 X154.894 Y130.983 E6.04975
G1 X154.195 Y131.582 E6.06812
G1 X153.331 Y132.193 E6.08924
G1 X153.145 Y132.311 E6.09363
G1 X152.347 Y132.77 E6.112
G1 X151.233 Y133.268 E6.13635
G1 X151.012 Y133.352 E6.14107
G1 X150.138 Y133.642 E6.15945
G1 X149.242 Y133.854 E6.17782
G1 X148.596 Y133.958 E6.19088
G1 X148.339 Y133.991 E6.19605
G1 X147.137 Y134.076 E6.2201
G1 X146.342 Y134.086 E6.23597
G1 X138.739 Y134.085 E6.38769
G1 X137.986 Y134.079 E6.40272
G1 X136.524 Y134.042 E6.4319
G1 X136.285 Y134.034 E6.43668
G1 X135.193 Y133.981 E6.45849
G1 X134.932 Y133.965 E6.46371
G1 X133.636 Y133.87 E6.48964
G1 X133.375 Y133.847 E6.49487
G1 X132.306 Y133.742 E6.51631
G1 X132.037 Y133.712 E6.52171
G1 X130.731 Y133.55 E6.54797
G1 X130.481 Y133.516 E6.55301
G1 X129.429 Y133.36 E6.57423
G1 X129.186 Y133.321 E6.57914
G1 X127.989 Y133.115 E6.60338
G1 X127.716 Y133.065 E6.60892
G1 X126.506 Y132.824 E6.63354
G1 X126.27 Y132.774 E6.63836
G1 X125.198 Y132.535 E6.66027
G1 X124.94 Y132.474 E6.66556
G1 X123.685 Y132.161 E6.69138
G1 X123.433 Y132.095 E6.69657
G1 X122.439 Y131.821 E6.71715
G1 X122.186 Y131.748 E6.72241
G1 X120.787 Y131.325 E6.75157
G1 X118.311 Y130.614 E6.80298
G1 X115.873 Y129.988 E6.85321
G1 X113.386 Y129.422 E6.90411
G1 X110.898 Y128.933 E6.95471
G1 X108.447 Y128.521 E7.00431
G1 X105.906 Y128.167 E7.05551
G1 X103.427 Y127.893 E7.10528
G1 X100.876 Y127.684 E7.15636
G1 X98.37 Y127.55 E7.20644
G1 X95.825 Y127.487 E7.25725
G1 X93.307 Y127.495 E7.30749
G1 X91.035 Y127.562 E7.35285
G1 X90.327 Y127.568 E7.36698
G1 X90.01 Y127.56 E7.37331
G1 X89.091 Y127.496 E7.3917
G1 X88.182 Y127.354 E7.41006
G1 X87.288 Y127.133 E7.42843
G1 X86.417 Y126.835 E7.44681
G1 X85.614 Y126.482 E7.46431
G1 X85.418 Y126.386 E7.46867
G1 X84.61 Y125.946 E7.48703
G1 X83.843 Y125.437 E7.5054
G1 X83.123 Y124.863 E7.52377
G1 X82.455 Y124.229 E7.54215
G1 X81.845 Y123.54 E7.56051
G1 X81.297 Y122.8 E7.57889
G1 X80.815 Y122.016 E7.59726
G1 X80.299 Y120.949 E7.62091
G1 X80.246 Y120.822 E7.62365
G1 X79.928 Y119.958 E7.64203
G1 X79.687 Y119.07 E7.66039
G1 X79.524 Y118.164 E7.67876
G1 X79.43 Y116.961 E7.70284
G1 X79.409 Y115.878 E7.72446
G1 X79.395 Y112.717 E7.78754
G1 X79.399 Y112.257 E7.79672
G1 X79.41 Y111.773 E7.80638
G1 X79.471 Y110.855 E7.82474
G1 X79.611 Y109.945 E7.84311
G1 X79.83 Y109.05 E7.8615
G1 X80.125 Y108.178 E7.87987
G1 X80.495 Y107.335 E7.89824
G1 X81.039 Y106.363 E7.92047
G1 X81.194 Y106.117 E7.92627
G1 X81.718 Y105.36 E7.94465
G1 X82.306 Y104.652 E7.96301
G1 X82.953 Y103.997 E7.98139
G1 X83.654 Y103.401 E7.99975
G0 F6000 X83.954 Y103.674
G1 F1200 X84.695 Y103.157 E8.01778
G1 X85.562 Y102.664 E8.03768
G1 X85.75 Y102.569 E8.04189
G1 X86.289 Y102.316 E8.05377
G1 X86.448 Y102.247 E8.05723
G1 X87.292 Y101.925 E8.07526
G1 X88.161 Y101.678 E8.09328
G1 X88.648 Y101.575 E8.10322
G1 X88.869 Y101.534 E8.1077
G1 X89.123 Y101.49 E8.11285
G1 X89.311 Y101.46 E8.11665
G1 X90.208 Y101.358 E8.13466
G1 X90.735 Y101.335 E8.14519
G1 X91.921 Y101.315 E8.16886
G1 X146.302 Y101.315 E9.25409
G1 X147.146 Y101.326 E9.27094
G1 X148.091 Y101.384 E9.28983
G1 X148.314 Y101.408 E9.29431
G1 X149.207 Y101.544 E9.31233
G1 X150.257 Y101.811 E9.33395
G1 X150.456 Y101.873 E9.33811
G1 X151.306 Y102.179 E9.35614
G1 X152.125 Y102.56 E9.37417
G1 X152.721 Y102.895 E9.38781
G1 X152.948 Y103.033 E9.39311
G1 X153.698 Y103.536 E9.41113
G1 X154.401 Y104.103 E9.42916
G1 X155.05 Y104.73 E9.44717
G1 X155.642 Y105.413 E9.4652
G1 X156.171 Y106.144 E9.48321
G1 X156.836 Y107.318 E9.51014
G1 X156.972 Y107.6 E9.51638
G1 X157.328 Y108.43 E9.53441
G1 X157.609 Y109.288 E9.55242
G1 X157.813 Y110.168 E9.57045
G1 X157.939 Y111.063 E9.58849
G1 X157.983 Y111.823 E9.60368
G1 X158 Y112.658 E9.62035
G1 X158.002 Y112.843 E9.62404
G1 X158.013 Y117.685 E9.72067
G1 X158 Y122.279 E9.81235
G1 X157.985 Y123.161 E9.82995
G1 X157.929 Y124.062 E9.84796
G1 X157.794 Y124.955 E9.86599
G1 X157.58 Y125.832 E9.884
G1 X157.289 Y126.687 E9.90203
G1 X156.875 Y127.61 E9.92221
G1 X156.741 Y127.873 E9.9281
G1 X156.296 Y128.658 E9.94611
G1 X155.783 Y129.402 E9.96415
G1 X155.206 Y130.097 E9.98217
G1 X154.571 Y130.738 E10.00018
G1 X153.88 Y131.32 E10.01821
G1 X153.117 Y131.855 E10.0368
G1 X152.931 Y131.973 E10.0412
G1 X152.148 Y132.423 E10.05922
G1 X151.091 Y132.895 E10.08232
G1 X150.87 Y132.979 E10.08704
G1 X150.012 Y133.262 E10.10507
G1 X149.133 Y133.468 E10.12309
G1 X148.545 Y133.561 E10.13497
G1 X148.288 Y133.594 E10.14014
G1 X147.131 Y133.676 E10.16329
G1 X146.342 Y133.686 E10.17903
G1 X138.742 Y133.685 E10.3307
G1 X137.805 Y133.676 E10.3494
G1 X136.534 Y133.643 E10.37477
G1 X136.305 Y133.634 E10.37934
G1 X135.213 Y133.581 E10.40116
G1 X134.961 Y133.566 E10.4062
G1 X133.665 Y133.471 E10.43213
G1 X133.414 Y133.449 E10.43716
G1 X132.345 Y133.344 E10.4586
G1 X132.086 Y133.315 E10.4638
G1 X130.78 Y133.153 E10.49006
G1 X130.54 Y133.121 E10.49489
G1 X129.488 Y132.965 E10.51612
G1 X129.254 Y132.927 E10.52085
G1 X128.057 Y132.721 E10.54508
G1 X127.795 Y132.673 E10.5504
G1 X126.585 Y132.432 E10.57502
G1 X126.357 Y132.384 E10.57967
G1 X125.285 Y132.145 E10.60159
G1 X125.037 Y132.086 E10.60668
G1 X123.782 Y131.773 E10.63249
G1 X123.539 Y131.709 E10.6375
G1 X122.545 Y131.435 E10.65808
G1 X122.302 Y131.365 E10.66313
G1 X120.95 Y130.956 E10.69131
G1 X118.415 Y130.228 E10.74395
G1 X115.947 Y129.594 E10.7948
G1 X113.454 Y129.027 E10.84582
G1 X110.999 Y128.544 E10.89575
G1 X108.468 Y128.119 E10.94697
G1 X106.003 Y127.776 E10.99663
G1 X103.432 Y127.492 E11.04825
G1 X100.895 Y127.284 E11.09905
G1 X98.402 Y127.151 E11.14887
G1 X95.833 Y127.086 E11.20015
G1 X93.295 Y127.095 E11.2508
G1 X91.164 Y127.156 E11.29335
G1 X91.019 Y127.162 E11.29624
G1 X90.337 Y127.168 E11.30985
G1 X90.02 Y127.16 E11.31618
G1 X89.119 Y127.097 E11.33421
G1 X88.227 Y126.955 E11.35223
G1 X87.351 Y126.734 E11.37026
G1 X86.498 Y126.437 E11.38829
G1 X85.79 Y126.123 E11.40374
G1 X85.594 Y126.027 E11.4081
G1 X84.802 Y125.594 E11.42611
G1 X84.05 Y125.093 E11.44414
G1 X83.346 Y124.528 E11.46216
G1 X82.695 Y123.902 E11.48018
G1 X82.102 Y123.221 E11.4982
G1 X81.571 Y122.49 E11.51623
G1 X81.107 Y121.716 E11.53424
G1 X80.668 Y120.795 E11.5546
G1 X80.615 Y120.668 E11.55735
G1 X80.304 Y119.82 E11.57537
G1 X80.07 Y118.948 E11.59339
G1 X79.914 Y118.059 E11.6114
G1 X79.83 Y116.953 E11.63354
G1 X79.809 Y115.876 E11.65503
G1 X79.795 Y112.719 E11.71803
G1 X79.799 Y112.266 E11.72708
G1 X79.81 Y111.782 E11.73674
G1 X79.87 Y110.881 E11.75476
G1 X80.01 Y109.989 E11.77278
G1 X80.228 Y109.113 E11.79079
G1 X80.523 Y108.259 E11.80882
G1 X80.893 Y107.435 E11.82685
G1 X81.377 Y106.577 E11.84651
G1 X81.532 Y106.331 E11.85231
G1 X82.047 Y105.588 E11.87035
G1 X82.625 Y104.895 E11.88836
G1 X83.263 Y104.255 E11.90639
G1 X83.954 Y103.674 E11.92441
G1 F1500 E7.92441
;MESH:Joystick-HandRest.3mf
G0 F6000 X90.832 Y110.865
G0 X91.014 Y111.934
G0 X90.764 Y112.43
G0 X90.798 Y116.124
G0 X98.845 Y113.919
G0 X104.565 Y114.119
G0 X107.324 Y114.451
G0 X110.039 Y115.045
G0 X112.684 Y115.897
G0 X115.236 Y116.997
G0 X119.787 Y119.231
G0 X127.095 Y121.302
G0 X132.785 Y122.529
;TYPE:WALL-INNER
G1 F1500 E11.92441
G1 F1200 X131.609 Y122.367 E11.9481
G1 X130.475 Y122.187 E11.97101
G1 X129.297 Y121.968 E11.99492
G1 X128.153 Y121.726 E12.01826
G1 X127.051 Y121.467 E12.04085
G1 X125.884 Y121.16 E12.06493
G1 X124.799 Y120.848 E12.08746
G1 X123.681 Y120.495 E12.11085
G1 X122.549 Y120.106 E12.13474
G1 X121.478 Y119.71 E12.15753
G1 X120.353 Y119.262 E12.18169
G1 X119.339 Y118.831 E12.20368
G1 X118.253 Y118.336 E12.2275
G1 X117.168 Y117.809 E12.25157
G1 X116.13 Y117.272 E12.27489
G1 X115.307 Y116.853 E12.29332
G1 X114.463 Y116.457 E12.31193
G1 X113.608 Y116.088 E12.33051
G1 X112.741 Y115.746 E12.34911
G1 X111.864 Y115.433 E12.36769
G1 X110.977 Y115.147 E12.38629
G1 X110.081 Y114.89 E12.40489
G1 X109.178 Y114.662 E12.42348
G1 X108.268 Y114.462 E12.44207
G1 X107.352 Y114.293 E12.46066
G1 X106.43 Y114.152 E12.47927
G1 X105.506 Y114.041 E12.49785
G1 X104.578 Y113.959 E12.51644
G1 X103.648 Y113.908 E12.53502
G1 X102.716 Y113.886 E12.55363
G1 X101.784 Y113.894 E12.57223
G1 X100.853 Y113.932 E12.59082
G1 X99.924 Y114 E12.60941
G1 X98.997 Y114.097 E12.62801
G1 X98.074 Y114.223 E12.6466
G1 X97.155 Y114.38 E12.66521
G1 X96.242 Y114.566 E12.6838
G1 X95.337 Y114.78 E12.70236
G1 X94.437 Y115.024 E12.72097
G1 X93.545 Y115.296 E12.73958
G1 X92.664 Y115.597 E12.75816
G1 X91.791 Y115.926 E12.77678
G1 X90.984 Y116.26 E12.79421
G1 X90.623 Y116.375 E12.80177
G1 X90.612 Y116.375 E12.80199
G1 X90.594 Y112.428 E12.88075
G1 X90.596 Y112.212 E12.88506
G1 X90.677 Y112.173 E12.88686
G1 X91.014 Y112.115 E12.89368
G1 X146.954 Y112.115 E14.01003
G1 X147.2 Y112.168 E14.01505
G1 X147.213 Y117.654 E14.12453
G1 X147.198 Y122.82 E14.22762
G1 X146.979 Y122.886 E14.23218
G1 X138.599 Y122.885 E14.39942
G1 X137.463 Y122.871 E14.42209
G1 X136.252 Y122.825 E14.44627
G1 X135.112 Y122.758 E14.46906
G1 X133.931 Y122.654 E14.49272
G1 X132.785 Y122.529 E14.51573
G0 F6000 X132.741 Y122.926
;TYPE:WALL-OUTER
G1 F1200 X131.546 Y122.762 E14.5398
G1 X130.412 Y122.582 E14.56271
G1 X129.219 Y122.36 E14.58693
G1 X128.07 Y122.117 E14.61036
G1 X126.949 Y121.854 E14.63334
G1 X125.782 Y121.546 E14.65743
G1 X124.689 Y121.232 E14.68012
G1 X123.551 Y120.873 E14.70394
G1 X122.41 Y120.481 E14.72801
G1 X121.33 Y120.082 E14.75099
G1 X120.205 Y119.633 E14.77516
G1 X119.163 Y119.191 E14.79775
G1 X119.13 Y119.174 E14.79849
G1 X118.078 Y118.696 E14.82155
G1 X116.993 Y118.168 E14.84563
G1 X115.947 Y117.628 E14.86912
G1 X115.131 Y117.212 E14.8874
G1 X114.299 Y116.822 E14.90574
G1 X113.455 Y116.458 E14.92408
G1 X112.6 Y116.121 E14.94242
G1 X111.735 Y115.812 E14.96075
